usr/share/icons/biglinux-icons-material/64/applets/osd-shutd-laptop.svg

<svg xmlns="http://www.w3.org/2000/svg" viewBox="0 0 64 64">
  <defs
     id="defs3051">
    <style
       type="text/css"
       id="current-color-scheme">
      .ColorScheme-Text {
        color:#232629;
      }
      .ColorScheme-Highlight {
        color:#3daee9;
      }
      .ColorScheme-NegativeText {
        color:#da4453;
      }
      </style>
  </defs>
  <path
     style="fill:currentColor;fill-opacity:1;stroke:none" 
     d="M 21 9 L 21 15 L 24 15 L 24 24 L 8.5722656 24 L 6 24 L 6 50 L 4 50 L 4 52 C 4 53.18714 4.8128598 54 6 54 L 41 54 C 42.18714 54 43 53.18714 43 52 L 43 50 L 41 50 L 41 37 C 46.089274 37 52.642869 36.999957 58 37 L 58 15 L 60 15 L 60 9 L 57.857422 9 L 23.572266 9 L 21 9 z M 23 11 L 58 11 L 58 13 L 56 13 L 26 13 L 23 13 L 23 11 z M 26 15 L 56 15 L 56 35 L 41 35 L 41 24 L 39 24 L 26 24 L 26 15 z M 8 26 L 24 26 L 26 26 L 39 26 L 39 48 L 8 48 L 8 26 z "
     class="ColorScheme-Text"
     />
  <path
     style="fill:currentColor;fill-opacity:1;stroke:none" 
     d="M 30 18 L 30 24 L 32 24 L 32 22 L 49 22 L 49 31 L 41 31 L 41 33 L 51 33 L 51 18 L 30 18 z "
     class="ColorScheme-Highlight"
     />
  <path
     style="fill:currentColor;fill-opacity:1;stroke:none" 
     d="M 18.970703 29.939453 L 17.455078 31.455078 L 22 36 L 17.455078 40.544922 L 18.970703 42.060547 L 23.515625 37.515625 L 28.060547 42.060547 L 29.576172 40.544922 L 25.029297 36 L 29.576172 31.455078 L 28.060547 29.939453 L 23.515625 34.484375 L 18.970703 29.939453 z "
     class="ColorScheme-NegativeText"
     />
</svg>

<svg xmlns="http://www.w3.org/2000/svg" viewBox="0 0 64 64"><path d="M21 9v6h3v9H6v26H4v2c0 1.187.813 2 2 2h35c1.187 0 2-.813 2-2v-2h-2V37h17V15h2V9H21zm2 2h35v2H23v-2zm3 4h30v20H41V24H26v-9zM8 26h31v22H8V26z" style="fill:currentColor;fill-opacity:1;stroke:none;color:#232629"/><path d="M30 18v6h2v-2h17v9h-8v2h10V18H30z" style="fill:currentColor;fill-opacity:1;stroke:none;color:#3daee9"/><path d="m18.97 29.94-1.515 1.515L22 36l-4.545 4.545 1.516 1.516 4.545-4.545 4.545 4.545 1.515-1.516L25.03 36l4.547-4.545-1.515-1.516-4.545 4.545-4.545-4.545z" style="fill:currentColor;fill-opacity:1;stroke:none;color:#da4453"/></svg>
